!!!!SEGMENT: pl-wnifc--6439-n--014_anonim--mazur-no-14.krn
!!!cenid: 18xx:3957
!!!COM: Anonim
!!!COM-rismID: pe30004985
!!!CDT:
!!!CNT:
!!!OTL: [Mazur] No. 14
!!!PDT: 1827
!!!AGN:
!!!SMS-siglum: PL-Wnifc
!!!SMS-shelfmark: 6439/n
!!!SMS-shelfwork: 014 W
!!!SMS-variant:
!!!SMS-altvar:
!!!NIFC-rismSourceID: 1001011246
!!!NIFC-islandoraID: nifc:212734
!!!URL-pdf-islandora: https://repozytorium.nifc.pl/islandora/object/nifc:212734/datastream/PDF/view
!!!URL-scan: https://polish.musicsources.pl/pl/lokalizacje/galeria/druki-muzyczne/16857 @EN{Scan on Polish Music Sources Website} @PL{Skany w portalu Dziedzictwo Muzyki Polskiej w otwartym dostępie}
!!!ONB-nifc: str. 9 w połowie 4. linii (skan 0005)
!!!AIN: 1 piano
!!!key: A
**kern	**kern
*part1	*part1
*staff2	*staff1
*I"Piano	*
*I'P-no	*
*Ipiano	*Ipiano
*ICklav	*ICklav
*clefF4	*clefG2
*k[f#c#g#]	*k[f#c#g#]
*A:	*A:
*M3/8	*M3/8
=1	=1
*^	*
!	!	!LO:TX:a:Bi:t=No. 14
8r	4A\	16.ee\LL
.	.	32dd\JJk
8c#/L 8e	.	16cc#\LL
.	.	16aa\
8c#/J 8e	8r	16gg#\
.	.	16ff#\JJ
=2	=2	=2
8r	4A\	16.ff#\LL
.	.	32dd\JJk
8c#/L 8e	.	8a\L 8cc#
8c#/J 8e	8r	8ff#\J
=3	=3	=3
8r	4E\	8g#/L 8b
8G#/L 8B 8d	.	8ee/
8G#/J 8B 8d	8r	16dd/L
.	.	16b/JJ
=4	=4	=4
8r	4A\	16a\LL
.	.	16cc#\
8c#/L 8e	.	16ee\
.	.	16aa\
8c#/J 8e	8r	16ccc#\
.	.	16eee\JJ
=5	=5	=5
8r	4D\	16.f#/LL
.	.	32b/JJk
8F#/L 8B	.	16dd/LL
.	.	16cc#/
8F#/J 8B	8r	16b/
.	.	16dd/JJ
=6	=6	=6
8r	4E\	16gg#\LL
.	.	16ff#\
8B/L 8d	.	16ee\
.	.	16gg#\
8B/J 8d	8r	16bb\
.	.	16aa\JJ
!LO:LB:g=original	!LO:LB:g=original	!LO:LB:g=original
=7	=7	=7
8r	4E\	16gg#\LL
.	.	16ff#\
8B/L 8d	.	16ee\
.	.	16dd\
8B/J 8d	8r	16b\
.	.	16g#\JJ
*v	*v	*
=8	=8
8A\ 8c#	16b\LL
.	16a\JJ
4AA\ 4A	4a\
=9:|!|:	=9:|!|:
*^	*
8r	4E\	16.e/LL 16.b
.	.	32ee/JJk
8G#/L 8B	.	8gg#\L
!	!	!LO:TUP:a:problem:klamra łukowa i cyfra
8G#/J 8B	8r	(24gg#\L
.	.	24ff#\
.	.	24ee\JJ)
=10	=10	=10
8r	4BB\	16.dd#X\LL
.	.	32ff#\JJk
8D#X/L 8F# 8A	.	8.aa\L
8D#/J 8F# 8A	8r	.
.	.	16gg#\Jk
=11	=11	=11
8r	4BB\	16.ff#\LL
.	.	32aa\JJk
8D#X/L 8F# 8A	.	8.ccc#\L
8D#/J 8F# 8A	8r	.
.	.	16bb\Jk
=12	=12	=12
8r	4E\	(32aa#X\LLL
.	.	32bb\
.	.	32ccc#\
.	.	32bb\JJJ)
8G#/L 8B	.	8gg#\L
8G#/J 8B	8r	8ee\J
=13	=13	=13
8r	4BB\	16bb\LL
.	.	16aa\
8F#/L 8A	.	16ff#\
.	.	16dd#X\
8F#/J 8A	8r	16b\
.	.	16a\JJ
=14	=14	=14
8r	4E\	16g#\LL
.	.	16b\
8G#/L 8B	.	16ee\
.	.	16gg#\
8G#/J 8B	8r	16bb\
.	.	16eee\JJ
=15	=15	=15
8r	4A\	16ddd#X\LL
.	.	16ccc#\
8c#/L 8f#	.	16aa\
.	.	16ff#\
8d/J 8f# 8a	8B\	16bb\
.	.	(16dd#X\JJ
*v	*v	*
=16	=16
!	!LO:TX:a:t=9.
8e\ 8g#	16ff#\LL
.	16ee\JJ
4E\	4ee\)
=17:|!	=17:|!
8e\ 8g#	(16ff#\LL
.	16ee\JJ
*	*Xtuplet
!	!LO:TX:t=P:problem:32
4E\	28ee\LL
.	28e\
!	!LO:TX:a:t=2.
.	28f#\
.	28g#\
.	28a\
.	28b\
.	28cc#\JJ)
==	==
*-	*-
!!!system-decoration: {(s1,s2)}
!!!ENC: Marta Opryszak
!!!END: 2022-07-28
!!!ENC: Julita Ruszuk
!!!END: 1011-08-25
!!!YEC: Copyright 2022 Narodowy Instytut Fryderyka Chopina (https://polishscores.org)
!!!YEM: Licence CC BY 4.0 (https://creativecommons.org/licenses/by/4.0)
